sources/design/Outline/U.svg

<svg:svg xmlns:cc="http://creativecommons.org/ns#" xmlns:dc="http://purl.org/dc/elements/1.1/" xmlns:inkscape="http://www.inkscape.org/namespaces/inkscape" xmlns:rdf="http://www.w3.org/1999/02/22-rdf-syntax-ns#" xmlns:sodipodi="http://sodipodi.sourceforge.net/DTD/sodipodi-0.dtd" xmlns:svg="http://www.w3.org/2000/svg" xml:space="preserve" width="1000" height="1000" version="1.1" style="clip-rule:evenodd;fill-rule:evenodd;image-rendering:optimizeQuality;shape-rendering:geometricPrecision;text-rendering:geometricPrecision" viewBox="0 0 1000 1000" id="svg10" sodipodi:docname="U.svg" inkscape:version="1.1.1 (3bf5ae0d25, 2021-09-20)"><svg:text text-anchor="middle" x="240.12778" y="5.8156967" id="top" inkscape:label="top" style="clip-rule:evenodd;fill-rule:evenodd;image-rendering:optimizeQuality;shape-rendering:geometricPrecision;text-rendering:geometricPrecision">✛</svg:text><svg:metadata id="metadata14"><rdf:RDF><cc:Work rdf:about=""><dc:format>image/svg+xml</dc:format><dc:type rdf:resource="http://purl.org/dc/dcmitype/StillImage" /><dc:title /></cc:Work></rdf:RDF></svg:metadata><sodipodi:namedview pagecolor="#ffffff" bordercolor="#666666" borderopacity="1" objecttolerance="10" gridtolerance="10" guidetolerance="10" inkscape:pageopacity="0" inkscape:pageshadow="2" inkscape:window-width="1920" inkscape:window-height="1009" id="namedview12" showgrid="false" inkscape:zoom="0.6002692" inkscape:cx="70.801567" inkscape:cy="306.52914" inkscape:window-x="0" inkscape:window-y="60" inkscape:window-maximized="1" inkscape:current-layer="svg10" showguides="true" inkscape:guide-bbox="true" inkscape:document-rotation="0" inkscape:pagecheckerboard="0"><sodipodi:guide position="0,1000" orientation="0,1" id="guide16" inkscape:label="" inkscape:locked="true" inkscape:color="rgb(0,0,255)" /><sodipodi:guide position="1763.3122,2036.1693" orientation="1000,0" id="guide18" /><sodipodi:guide position="0,200" orientation="0,1" id="guide20" inkscape:label="base" inkscape:locked="true" inkscape:color="rgb(0,0,255)" /><inkscape:grid type="xygrid" id="grid24" originx="-473.37552" originy="-489.69235" /><sodipodi:guide position="0,0" orientation="0,1" id="guide34" inkscape:label="bottom" inkscape:locked="true" inkscape:color="rgb(0,0,255)" /><sodipodi:guide position="225.05109,1693.3186" orientation="0,1" id="guide44" inkscape:label="" inkscape:locked="false" inkscape:color="rgb(0,0,255)" /><sodipodi:guide position="0,900" orientation="0,1" id="guide46" inkscape:label="" inkscape:locked="true" inkscape:color="rgb(0,0,255)" /><sodipodi:guide position="496.51112,569.83979" orientation="1,0" id="guide841" inkscape:label="width" />    </sodipodi:namedview>
 <svg:defs id="defs4"><inkscape:path-effect effect="fillet_chamfer" id="path-effect850" is_visible="true" lpeversion="1" satellites_param="F,0,0,1,0,17.655755,0,1 @ F,0,0,1,0,18.217287,0,1 @ F,0,0,1,0,0,0,1 @ F,0,0,1,0,0,0,1 @ F,0,0,1,0,0,0,1 @ F,0,0,1,0,0,0,1 @ F,0,0,1,0,0,0,1 @ F,0,0,1,0,0,0,1 @ F,0,0,1,0,0,0,1 @ F,0,0,1,0,0,0,1 @ F,0,0,1,0,0,0,1 @ F,0,0,1,0,16.318746,0,1 @ F,0,0,1,0,17.396637,0,1 @ F,0,0,1,0,0,0,1 @ F,0,0,1,0,0,0,1 @ F,0,0,1,0,0,0,1 @ F,0,0,1,0,0,0,1 @ F,0,0,1,0,0,0,1 @ F,0,0,1,0,0,0,1 @ F,0,0,1,0,0,0,1" unit="px" method="auto" mode="F" radius="0" chamfer_steps="1" flexible="false" use_knot_distance="true" apply_no_radius="true" apply_with_radius="true" only_selected="true" hide_knots="false" /><inkscape:path-effect effect="spiro" id="path-effect885" is_visible="true" lpeversion="1" /><inkscape:path-effect effect="spiro" id="path-effect849" is_visible="true" lpeversion="1" /><inkscape:path-effect effect="spiro" id="path-effect851" is_visible="true" lpeversion="1" />
  <svg:style type="text/css" id="style2">
   
    .fil0 {fill:#EF7F1A;fill-rule:nonzero}
   
  </svg:style>
 <inkscape:path-effect effect="spiro" id="path-effect1214" is_visible="true" lpeversion="1" /><inkscape:path-effect effect="spiro" id="path-effect1195" is_visible="true" lpeversion="1" /><inkscape:path-effect effect="spiro" id="path-effect992" is_visible="true" lpeversion="1" /><inkscape:path-effect effect="spiro" id="path-effect1060" is_visible="true" lpeversion="1" /><inkscape:path-effect effect="spiro" id="path-effect1047" is_visible="true" lpeversion="1" /><inkscape:path-effect effect="spiro" id="path-effect1085" is_visible="true" lpeversion="1" /><inkscape:path-effect effect="spiro" id="path-effect1286" is_visible="true" lpeversion="1" /></svg:defs>
 
<svg:g id="path883"><svg:path style="color:#000000;clip-rule:nonzero;fill:#1a5fb4;fill-rule:nonzero;stroke-linecap:round;stroke-linejoin:round;-inkscape-stroke:none;paint-order:fill stroke markers;shape-rendering:auto" d="M 25.978516,-30.0 C 0.031177559999999716,-30.0 -21.995058,-6.9427112000000015 -20.861328,18.951172 C -16.78999,111.93875 -13.939545,204.97861 -12.310547,298.04102 C -10.083283999999999,425.28142 -9.7919389,563.4722300000001 53.679687,684.80078 C 75.014604,725.58333 104.09323,764.73428 144.33594,792.79102 C 184.98606,821.1318 236.61428999999998,836.73295 288.12305000000003,827.08789 C 335.82422,818.15581 375.48259,789.16376 403.96289,754.00977 C 432.19163000000003,719.16628 449.73442,679.02921 463.16992000000005,639.91016 C 506.00123,515.2017 513.17932,383.39618 512.32617,255.74609 C 511.7887,175.32737 508.12001,94.930066 501.33008,14.796875 C 499.14621,-10.976641 478.27779,-30.0 452.52344,-30.0 L 347.82227,-30.0 C 335.63747,-30.0 321.65877,-24.370175 313.4707,-13.021484000000001 C 305.28263000000004,-1.6727936000000003 304.34459000000004,13.171723999999998 308.05078000000003,24.689453 C 318.15563000000003,56.092317 326.92314000000005,87.926612 334.32227,120.07422 C 365.98619,257.64718 372.03526,401.5507 343.04297,538.30664 C 336.68397000000004,568.30191 328.60974000000004,595.8106300000001 314.43945,616.76953 C 307.40026,627.18101 298.83979,635.99271 289.43359000000004,642.125 C 280.12601000000006,648.193 269.53115,651.78965 259.74219000000005,652.20117 C 249.24685000000005,652.6423900000001 237.54232000000005,649.4819500000001 227.24023000000005,643.4335900000001 C 216.81150000000005,637.3108800000001 207.24102000000005,628.0856900000001 199.37305000000006,617.0312500000001 C 183.52118,594.7595 174.49717,565.03934 166.89844,532.66016 C 140.56516,420.45059 130.88562,304.30119 141.07422,190.00391 C 146.03106,134.3973 155.67234,79.196125 169.85156,25.197266 C 173.07972,12.903457 171.17639,-1.9264592 162.71484,-13.037109 C 154.2533,-24.14776 140.2301,-30.0 127.40039,-30.0 L 25.978516,-30.0 M 39.591797,30.0 L 107.00391,30.0 C 94.70563,80.853241 85.956299,132.55902 81.310547,184.67578 C 70.504913,305.89505 80.797237,428.3823 108.48633,546.36914 C 116.51914,580.59801 126.66887,618.35539 150.49023,651.82422 C 162.45888,668.64006 177.79163,683.97686 196.86328,695.17383 C 216.06158,706.44516 238.57841000000002,713.1440699999999 262.26171999999997,712.1484399999999 C 284.31406999999996,711.22137 304.81172999999995,703.7236099999999 322.20117,692.38672 C 339.49199999999996,681.11412 353.33565999999996,666.36696 364.14648,650.37695 C 385.67622,618.53289 394.87842,583.10781 401.73828,550.75 C 432.84795,404.00641 426.13029,251.45875 392.79297,106.61523 C 386.86625,80.864932 380.09363,55.311673 372.51172,30.0 L 442.30469000000005,30.0 C 448.42536000000007,105.22581 451.82371000000006,180.67401 452.32812000000007,256.14648 C 453.1639400000001,381.20415 445.6807300000001,506.12072 406.42383000000007,620.42187 C 394.15114000000005,656.15527 378.93595000000005,689.5884 357.34375000000006,716.24023 C 336.0031000000001,742.58156 307.1710300000001,762.47873 277.08008000000007,768.11328 C 244.73050000000006,774.1707700000001 207.98605000000006,764.02278 178.65039000000007,743.5703100000001 C 148.90731,722.83379 125.05616,691.80203 106.84375,656.98828 C 52.182401,552.50093 49.914672,424.56216 47.681641,296.99219 C 46.12328,207.9652 43.372784,118.9603 39.591797,30.0" id="path20757" /></svg:g></svg:svg>

<svg:svg xmlns:cc="http://creativecommons.org/ns#" xmlns:dc="http://purl.org/dc/elements/1.1/" xmlns:inkscape="http://www.inkscape.org/namespaces/inkscape" xmlns:rdf="http://www.w3.org/1999/02/22-rdf-syntax-ns#" xmlns:sodipodi="http://sodipodi.sourceforge.net/DTD/sodipodi-0.dtd" xmlns:svg="http://www.w3.org/2000/svg" xml:space="preserve" width="1000" height="1000" version="1.1" style="clip-rule:evenodd;fill-rule:evenodd;image-rendering:optimizeQuality;shape-rendering:geometricPrecision;text-rendering:geometricPrecision" viewBox="0 0 1000 1000" id="svg10" sodipodi:docname="U.svg" inkscape:version="1.1.1 (3bf5ae0d25, 2021-09-20)"><svg:text text-anchor="middle" x="240.12778" y="5.8156967" id="top" inkscape:label="top" style="clip-rule:evenodd;fill-rule:evenodd;image-rendering:optimizeQuality;shape-rendering:geometricPrecision;text-rendering:geometricPrecision">✛</svg:text><svg:metadata id="metadata14"><rdf:RDF><cc:Work rdf:about=""><dc:format>image/svg+xml</dc:format><dc:type rdf:resource="http://purl.org/dc/dcmitype/StillImage" /><dc:title /></cc:Work></rdf:RDF></svg:metadata><sodipodi:namedview pagecolor="#ffffff" bordercolor="#666666" borderopacity="1" objecttolerance="10" gridtolerance="10" guidetolerance="10" inkscape:pageopacity="0" inkscape:pageshadow="2" inkscape:window-width="1920" inkscape:window-height="1009" id="namedview12" showgrid="false" inkscape:zoom="0.6002692" inkscape:cx="70.801567" inkscape:cy="306.52914" inkscape:window-x="0" inkscape:window-y="60" inkscape:window-maximized="1" inkscape:current-layer="svg10" showguides="true" inkscape:guide-bbox="true" inkscape:document-rotation="0" inkscape:pagecheckerboard="0"><sodipodi:guide position="0,1000" orientation="0,1" id="guide16" inkscape:label="" inkscape:locked="true" inkscape:color="rgb(0,0,255)" /><sodipodi:guide position="1763.3122,2036.1693" orientation="1000,0" id="guide18" /><sodipodi:guide position="0,200" orientation="0,1" id="guide20" inkscape:label="base" inkscape:locked="true" inkscape:color="rgb(0,0,255)" /><inkscape:grid type="xygrid" id="grid24" originx="-473.37552" originy="-489.69235" /><sodipodi:guide position="0,0" orientation="0,1" id="guide34" inkscape:label="bottom" inkscape:locked="true" inkscape:color="rgb(0,0,255)" /><sodipodi:guide position="225.05109,1693.3186" orientation="0,1" id="guide44" inkscape:label="" inkscape:locked="false" inkscape:color="rgb(0,0,255)" /><sodipodi:guide position="0,900" orientation="0,1" id="guide46" inkscape:label="" inkscape:locked="true" inkscape:color="rgb(0,0,255)" /><sodipodi:guide position="496.51112,569.83979" orientation="1,0" id="guide841" inkscape:label="width" />    </sodipodi:namedview>
 <svg:defs id="defs4"><inkscape:path-effect effect="fillet_chamfer" id="path-effect850" is_visible="true" lpeversion="1" satellites_param="F,0,0,1,0,17.655755,0,1 @ F,0,0,1,0,18.217287,0,1 @ F,0,0,1,0,0,0,1 @ F,0,0,1,0,0,0,1 @ F,0,0,1,0,0,0,1 @ F,0,0,1,0,0,0,1 @ F,0,0,1,0,0,0,1 @ F,0,0,1,0,0,0,1 @ F,0,0,1,0,0,0,1 @ F,0,0,1,0,0,0,1 @ F,0,0,1,0,0,0,1 @ F,0,0,1,0,16.318746,0,1 @ F,0,0,1,0,17.396637,0,1 @ F,0,0,1,0,0,0,1 @ F,0,0,1,0,0,0,1 @ F,0,0,1,0,0,0,1 @ F,0,0,1,0,0,0,1 @ F,0,0,1,0,0,0,1 @ F,0,0,1,0,0,0,1 @ F,0,0,1,0,0,0,1" unit="px" method="auto" mode="F" radius="0" chamfer_steps="1" flexible="false" use_knot_distance="true" apply_no_radius="true" apply_with_radius="true" only_selected="true" hide_knots="false" /><inkscape:path-effect effect="spiro" id="path-effect885" is_visible="true" lpeversion="1" /><inkscape:path-effect effect="spiro" id="path-effect849" is_visible="true" lpeversion="1" /><inkscape:path-effect effect="spiro" id="path-effect851" is_visible="true" lpeversion="1" />
  <svg:style type="text/css" id="style2">
   
    .fil0 {fill:#EF7F1A;fill-rule:nonzero}
   
  </svg:style>
 <inkscape:path-effect effect="spiro" id="path-effect1214" is_visible="true" lpeversion="1" /><inkscape:path-effect effect="spiro" id="path-effect1195" is_visible="true" lpeversion="1" /><inkscape:path-effect effect="spiro" id="path-effect992" is_visible="true" lpeversion="1" /><inkscape:path-effect effect="spiro" id="path-effect1060" is_visible="true" lpeversion="1" /><inkscape:path-effect effect="spiro" id="path-effect1047" is_visible="true" lpeversion="1" /><inkscape:path-effect effect="spiro" id="path-effect1085" is_visible="true" lpeversion="1" /><inkscape:path-effect effect="spiro" id="path-effect1286" is_visible="true" lpeversion="1" /></svg:defs>
 
<svg:g id="path883"><svg:path style="color:#000000;clip-rule:nonzero;fill:#1a5fb4;fill-rule:nonzero;stroke-linecap:round;stroke-linejoin:round;-inkscape-stroke:none;shape-rendering:auto" d="m 25.978516,-30 c -25.94733844,0 -47.973574,23.0572888 -46.839844,48.951172 4.071338,92.987578 6.921783,186.027438 8.550781,279.089848 2.227263,127.2404 2.5186081,265.43121 65.990234,386.75976 21.334917,40.78255 50.413543,79.9335 90.656253,107.99024 40.65012,28.34078 92.27835,43.94193 143.78711,34.29687 47.70117,-8.93208 87.35954,-37.92413 115.83984,-73.07812 28.22874,-34.84349 45.77153,-74.98056 59.20703,-114.09961 C 506.00123,515.2017 513.17932,383.39618 512.32617,255.74609 511.7887,175.32737 508.12001,94.930066 501.33008,14.796875 499.14621,-10.976641 478.27779,-30 452.52344,-30 H 347.82227 c -12.1848,0 -26.1635,5.629825 -34.35157,16.978516 -8.18807,11.3486904 -9.12611,26.193208 -5.41992,37.710937 10.10485,31.402864 18.87236,63.237159 26.27149,95.384767 31.66392,137.57296 37.71299,281.47648 8.7207,418.23242 -6.359,29.99527 -14.43323,57.50399 -28.60352,78.46289 -7.03919,10.41148 -15.59966,19.22318 -25.00586,25.35547 -9.30758,6.068 -19.90244,9.66465 -29.6914,10.07617 -10.49534,0.44122 -22.19987,-2.71922 -32.50196,-8.76758 -10.42873,-6.12271 -19.99921,-15.3479 -27.86718,-26.40234 C 183.52118,594.7595 174.49717,565.03934 166.89844,532.66016 140.56516,420.45059 130.88562,304.30119 141.07422,190.00391 146.03106,134.3973 155.67234,79.196125 169.85156,25.197266 173.07972,12.903457 171.17639,-1.9264592 162.71484,-13.037109 154.2533,-24.14776 140.2301,-30 127.40039,-30 Z M 39.591797,30 H 107.00391 C 94.70563,80.853241 85.956299,132.55902 81.310547,184.67578 70.504913,305.89505 80.797237,428.3823 108.48633,546.36914 c 8.03281,34.22887 18.18254,71.98625 42.0039,105.45508 11.96865,16.81584 27.3014,32.15264 46.37305,43.34961 19.1983,11.27133 41.71513,17.97024 65.39844,16.97461 22.05235,-0.92707 42.55001,-8.42483 59.93945,-19.76172 17.29083,-11.2726 31.13449,-26.01976 41.94531,-42.00977 21.52974,-31.84406 30.73194,-67.26914 37.5918,-99.62695 C 432.84795,404.00641 426.13029,251.45875 392.79297,106.61523 386.86625,80.864932 380.09363,55.311673 372.51172,30 h 69.79297 c 6.12067,75.22581 9.51902,150.67401 10.02343,226.14648 0.83582,125.05767 -6.64739,249.97424 -45.90429,364.27539 -12.27269,35.7334 -27.48788,69.16653 -49.08008,95.81836 -21.34065,26.34133 -50.17272,46.2385 -80.26367,51.87305 -32.34958,6.05749 -69.09403,-4.0905 -98.42969,-24.54297 C 148.90731,722.83379 125.05616,691.80203 106.84375,656.98828 52.182401,552.50093 49.914672,424.56216 47.681641,296.99219 46.12328,207.9652 43.372784,118.9603 39.591797,30 Z" id="path20705" /></svg:g></svg:svg>
